svg/application-package/single_process.svg

<?xml version="1.0" encoding="UTF-8" standalone="no"?>
<!-- Created with Inkscape (http://www.inkscape.org/) -->

<svg
   xmlns:dc="http://purl.org/dc/elements/1.1/"
   xmlns:cc="http://creativecommons.org/ns#"
   xmlns:rdf="http://www.w3.org/1999/02/22-rdf-syntax-ns#"
   xmlns:svg="http://www.w3.org/2000/svg"
   xmlns="http://www.w3.org/2000/svg"
   xmlns:sodipodi="http://sodipodi.sourceforge.net/DTD/sodipodi-0.dtd"
   xmlns:inkscape="http://www.inkscape.org/namespaces/inkscape"
   width="25.204723mm"
   height="31.257875mm"
   viewBox="0 0 25.204723 31.257875"
   version="1.1"
   id="svg8"
   inkscape:version="0.92.4 (5da689c313, 2019-01-14)"
   sodipodi:docname="single_process.svg">
  <defs
     id="defs2">
    <linearGradient
       gradientTransform="matrix(14.4338,0,0,66.1134,404.145,241.667)"
       gradientUnits="userSpaceOnUse"
       y2="0"
       x2="1"
       y1="0"
       x1="0"
       id="_Linear1">
      <stop
         id="stop8405"
         style="stop-color:rgb(205,216,225);stop-opacity:1"
         offset="0" />
      <stop
         id="stop8407"
         style="stop-color:rgb(192,205,216);stop-opacity:1"
         offset="0.56" />
      <stop
         id="stop8409"
         style="stop-color:rgb(141,165,180);stop-opacity:1"
         offset="1" />
    </linearGradient>
  </defs>
  <sodipodi:namedview
     id="base"
     pagecolor="#ffffff"
     bordercolor="#666666"
     borderopacity="1.0"
     inkscape:pageopacity="0.0"
     inkscape:pageshadow="2"
     inkscape:zoom="0.35"
     inkscape:cx="-182.60645"
     inkscape:cy="-559.85856"
     inkscape:document-units="mm"
     inkscape:current-layer="layer1"
     showgrid="false"
     fit-margin-top="0"
     fit-margin-left="0"
     fit-margin-right="0"
     fit-margin-bottom="0"
     inkscape:window-width="2100"
     inkscape:window-height="1234"
     inkscape:window-x="3191"
     inkscape:window-y="-9"
     inkscape:window-maximized="1" />
  <metadata
     id="metadata5">
    <rdf:RDF>
      <cc:Work
         rdf:about="">
        <dc:format>image/svg+xml</dc:format>
        <dc:type
           rdf:resource="http://purl.org/dc/dcmitype/StillImage" />
        <dc:title></dc:title>
      </cc:Work>
    </rdf:RDF>
  </metadata>
  <g
     inkscape:label="Layer 1"
     inkscape:groupmode="layer"
     id="layer1"
     transform="translate(-21.100335,30.553822)">
    

    

    

    

    

    

    

    

    

    

    

    

    

    

    

    

    

    

    

    

    

    

    

    
    

    <g
   id="g8616"
   transform="matrix(0.26458333,0,0,0.26458333,-207.0679,-277.52384)">
        <g
   transform="translate(-1865.61,-2205)"
   id="g28400">
            <g
   transform="matrix(0.229136,0.132292,0,0.264583,2476.83,2597.48)"
   id="rect12456">
                <path
   id="path8573"
   style="fill:#8da5b4;fill-rule:nonzero"
   d="m 1285.04,1407.95 v 42.71 c -13.64,3.55 -26.72,8.99 -38.86,16.17 l -30.25,-30.25 -53.44,53.45 30.23,30.23 c -7.14,12.15 -12.55,25.23 -16.07,38.87 h -42.79 v 75.59 h 42.71 c 3.55,13.64 8.99,26.72 16.17,38.86 l -30.25,30.25 53.44,53.44 30.24,-30.23 c 12.14,7.14 25.23,12.55 38.87,16.07 v 42.79 h 75.59 v -42.71 c 13.64,-3.55 26.72,-8.99 38.86,-16.17 l 30.25,30.25 53.44,-53.44 -30.23,-30.24 c 7.14,-12.14 12.55,-25.23 16.07,-38.87 h 42.79 v -75.59 h -42.71 c -3.55,-13.64 -8.99,-26.72 -16.17,-38.85 l 30.25,-30.25 -53.44,-53.45 -30.24,30.23 c -12.14,-7.14 -25.23,-12.55 -38.87,-16.07 v -42.79 z m 37.8,113.38 c 41.46,0 75.58,34.13 75.58,75.59 0,41.47 -34.12,75.6 -75.58,75.6 -41.47,0 -75.6,-34.13 -75.6,-75.6 0,-41.46 34.13,-75.59 75.6,-75.59 z"
   inkscape:connector-curvature="0" />

            </g>

            <g
   id="g28149">
                <path
   style="fill:#cccccc;fill-rule:nonzero"
   d="m 2762.62,3145 8.66,-5 v 11.3 l -8.66,5 V 3145"
   id="path28063"
   inkscape:connector-curvature="0" />

                <path
   style="fill:#f1f4f7;fill-rule:nonzero"
   d="m 2762.62,3156.3 8.66,-5 -8.9,-0.86 -8.66,5 8.9,0.86"
   id="path28065"
   inkscape:connector-curvature="0" />

                <path
   style="fill:#8da5b4;fill-rule:nonzero"
   d="m 2753.72,3155.44 8.66,-5 -6.93,-12.01 -8.66,5 6.93,12.01"
   id="path28067"
   inkscape:connector-curvature="0" />

                <path
   style="fill-opacity:0.3;fill-rule:nonzero"
   d="m 2746.79,3143.43 8.66,-5 -12.25,7.07 -8.66,5 12.25,-7.07"
   id="path28069"
   inkscape:connector-curvature="0" />

                <path
   style="fill:#cccccc;fill-rule:nonzero"
   d="m 2734.54,3150.5 8.66,-5 6.93,12 -8.66,5 -6.93,-12"
   id="path28071"
   inkscape:connector-curvature="0" />

                <path
   style="fill:#cccccc;fill-rule:nonzero"
   d="m 2741.47,3162.5 8.66,-5 -3.68,8.16 -8.67,5 3.69,-8.16"
   id="path28073"
   inkscape:connector-curvature="0" />

                <path
   style="fill:#cccccc;fill-rule:nonzero"
   d="m 2727.98,3165 8.66,-5 v 20 l -8.66,5 v -20"
   id="path28077"
   inkscape:connector-curvature="0" />

                <path
   style="fill:#cccccc;fill-rule:nonzero"
   d="m 2727.98,3185 8.66,-5 9.79,5.65 -8.66,5 -9.79,-5.65"
   id="path28079"
   inkscape:connector-curvature="0" />

                <path
   style="fill:#cccccc;fill-rule:nonzero"
   d="m 2737.77,3190.65 8.66,-5 3.7,12.42 -8.66,5 -3.7,-12.42"
   id="path28081"
   inkscape:connector-curvature="0" />

                <path
   style="fill-opacity:0.3;fill-rule:nonzero"
   d="m 2741.47,3203.07 8.66,-5 -6.93,4 -8.66,5 6.93,-4"
   id="path28083"
   inkscape:connector-curvature="0" />

                <path
   style="fill:#cccccc;fill-rule:nonzero"
   d="m 2734.54,3207.07 8.66,-5 12.25,21.21 -8.66,5 -12.25,-21.21"
   id="path28085"
   inkscape:connector-curvature="0" />

                <path
   style="fill-opacity:0.3;fill-rule:nonzero"
   d="m 2746.79,3228.28 8.66,-5 6.92,-4 -8.66,5 -6.92,4"
   id="path28087"
   inkscape:connector-curvature="0" />

                <path
   style="fill:#cccccc;fill-rule:nonzero"
   d="m 2753.71,3224.28 8.66,-5 8.91,9.4 -8.66,5 -8.91,-9.4"
   id="path28089"
   inkscape:connector-curvature="0" />

                <path
   style="fill:#cccccc;fill-rule:nonzero"
   d="m 2762.62,3233.68 8.66,-5 V 3240 l -8.66,5 v -11.32"
   id="path28091"
   inkscape:connector-curvature="0" />

                <path
   style="fill:#cccccc;fill-rule:nonzero"
   d="m 2762.62,3245 8.66,-5 17.32,10 -8.66,5 -17.32,-10"
   id="path28093"
   inkscape:connector-curvature="0" />

                <path
   style="fill:#8da5b4;fill-rule:nonzero"
   d="m 2779.94,3255 8.66,-5 v -11.3 l -8.66,5 v 11.3"
   id="path28095"
   inkscape:connector-curvature="0" />

                <path
   style="fill:#cccccc;fill-rule:nonzero"
   d="m 2779.94,3243.7 8.66,-5 8.91,0.86 -8.66,5 -8.91,-0.86"
   id="path28097"
   inkscape:connector-curvature="0" />

                <path
   style="fill:#cccccc;fill-rule:nonzero"
   d="m 2788.85,3244.56 8.66,-5 6.93,12.01 -8.66,5 -6.93,-12.01"
   id="path28099"
   inkscape:connector-curvature="0" />

                <path
   style="fill-opacity:0.3;fill-rule:nonzero"
   d="m 2795.78,3256.57 8.66,-5 12.24,-7.07 -8.66,5 -12.24,7.07"
   id="path28101"
   inkscape:connector-curvature="0" />

                <path
   style="fill:#8da5b4;fill-rule:nonzero"
   d="m 2808.02,3249.5 8.66,-5 -6.92,-12 -8.66,5 6.92,12"
   id="path28103"
   inkscape:connector-curvature="0" />

                <path
   style="fill:#8da5b4;fill-rule:nonzero"
   d="m 2801.1,3237.5 8.66,-5 3.68,-8.16 -8.66,5 -3.68,8.16"
   id="path28105"
   inkscape:connector-curvature="0" />

                <path
   style="fill:#cccccc;fill-rule:nonzero"
   d="m 2804.78,3229.34 8.66,-5 9.8,5.66 -8.66,5 -9.8,-5.66"
   id="path28107"
   inkscape:connector-curvature="0" />

                <path
   style="fill:#8da5b4;fill-rule:nonzero"
   d="m 2814.58,3235 8.66,-5 v -20 l -8.66,5 v 20"
   id="path28109"
   inkscape:connector-curvature="0" />

                <path
   style="fill:#f1f4f7;fill-rule:nonzero"
   d="m 2814.58,3215 8.66,-5 -9.78,-5.65 -8.66,5 9.78,5.65"
   id="path28111"
   inkscape:connector-curvature="0" />

                <path
   style="fill:#8da5b4;fill-rule:nonzero"
   d="m 2804.8,3209.35 8.66,-5 -3.71,-12.42 -8.66,5 3.71,12.42"
   id="path28113"
   inkscape:connector-curvature="0" />

                <path
   style="fill-opacity:0.3;fill-rule:nonzero"
   d="m 2801.09,3196.93 8.66,-5 6.93,-4 -8.66,5 -6.93,4"
   id="path28115"
   inkscape:connector-curvature="0" />

                <path
   style="fill:#8da5b4;fill-rule:nonzero"
   d="m 2808.02,3192.93 8.66,-5 -12.24,-21.21 -8.66,5 12.24,21.21"
   id="path28117"
   inkscape:connector-curvature="0" />

                <path
   style="fill-opacity:0.3;fill-rule:nonzero"
   d="m 2795.78,3171.72 8.66,-5 -6.93,4 -8.66,5 6.93,-4"
   id="path28119"
   inkscape:connector-curvature="0" />

                <path
   style="fill:#f1f4f7;fill-rule:nonzero"
   d="m 2788.85,3175.72 8.66,-5 -8.91,-9.4 -8.66,5 8.91,9.4"
   id="path28121"
   inkscape:connector-curvature="0" />

                <path
   style="fill:#8da5b4;fill-rule:nonzero"
   d="m 2779.94,3166.32 8.66,-5 V 3150 l -8.66,5 v 11.32"
   id="path28123"
   inkscape:connector-curvature="0" />

                <path
   style="fill:#f1f4f7;fill-rule:nonzero"
   d="m 2779.94,3155 8.66,-5 -17.32,-10 -8.66,5 17.32,10"
   id="path28125"
   inkscape:connector-curvature="0" />

                <path
   style="fill-opacity:0.3;fill-rule:nonzero"
   d="m 2762.62,3145 8.66,-5 -8.66,5"
   id="path28127"
   inkscape:connector-curvature="0" />

                <path
   style="fill-opacity:0.3;fill-rule:nonzero"
   d="m 2771.28,3180 8.66,-5 -8.66,5"
   id="path28145"
   inkscape:connector-curvature="0" />

                <path
   style="fill-opacity:0.3;fill-rule:nonzero"
   d="m 2771.28,3180 8.66,-5 -8.66,5"
   id="path28147"
   inkscape:connector-curvature="0" />

                <path
   style="fill:#f1f4f7;fill-rule:nonzero"
   d="m 2737.78,3170.66 8.67,-5 -9.81,-5.66 -8.66,5 9.8,5.66"
   id="path28075"
   inkscape:connector-curvature="0" />

            </g>

            <g
   transform="matrix(0.229136,0.132292,0,0.264583,2468.17,2602.48)"
   id="path20286">
                <path
   id="path8612"
   style="fill:#cdd8e1;fill-rule:nonzero"
   d="m 1285.04,1407.95 v 42.71 c -13.64,3.55 -26.72,8.99 -38.86,16.17 l -30.25,-30.25 -53.44,53.45 30.23,30.23 c -7.14,12.15 -12.55,25.23 -16.07,38.87 h -42.79 v 75.59 h 42.71 c 3.55,13.64 8.99,26.72 16.17,38.86 l -30.25,30.25 53.44,53.44 30.24,-30.23 c 12.14,7.14 25.23,12.55 38.87,16.07 v 42.79 h 75.59 v -42.71 c 13.64,-3.55 26.72,-8.99 38.86,-16.17 l 30.25,30.25 53.44,-53.44 -30.23,-30.24 c 7.14,-12.14 12.55,-25.23 16.07,-38.87 h 42.79 v -75.59 h -42.71 c -3.55,-13.64 -8.99,-26.72 -16.17,-38.85 l 30.25,-30.25 -53.44,-53.45 -30.24,30.23 c -12.14,-7.14 -25.23,-12.55 -38.87,-16.07 v -42.79 z m 37.8,113.38 c 41.46,0 75.58,34.13 75.58,75.59 0,41.47 -34.12,75.6 -75.58,75.6 -41.47,0 -75.6,-34.13 -75.6,-75.6 0,-41.46 34.13,-75.59 75.6,-75.59 z"
   inkscape:connector-curvature="0" />

            </g>

        </g>

    </g>

</g>
</svg>

<?xml version="1.0" encoding="UTF-8" standalone="no"?>
<!DOCTYPE svg PUBLIC "-//W3C//DTD SVG 1.1//EN" "http://www.w3.org/Graphics/SVG/1.1/DTD/svg11.dtd">
<svg width="100%" height="100%" viewBox="0 0 160 198" version="1.1" xmlns="http://www.w3.org/2000/svg" xmlns:xlink="http://www.w3.org/1999/xlink" xml:space="preserve" xmlns:serif="http://www.serif.com/" style="fill-rule:evenodd;clip-rule:evenodd;stroke-linejoin:round;stroke-miterlimit:2;">
    <g transform="matrix(1,0,0,1,-1031.66,-775.829)">
        <g id="Engine" transform="matrix(1.67269,0,0,1.67269,-3531.41,-4473.8)">
            <g id="rect12456" transform="matrix(0.229136,0.132292,0,0.264583,2476.83,2597.48)">
                <path d="M1285.04,1407.95L1285.04,1450.66C1271.4,1454.21 1258.32,1459.65 1246.18,1466.83L1215.93,1436.58L1162.49,1490.03L1192.72,1520.26C1185.58,1532.41 1180.17,1545.49 1176.65,1559.13L1133.86,1559.13L1133.86,1634.72L1176.57,1634.72C1180.12,1648.36 1185.56,1661.44 1192.74,1673.58L1162.49,1703.83L1215.93,1757.27L1246.17,1727.04C1258.31,1734.18 1271.4,1739.59 1285.04,1743.11L1285.04,1785.9L1360.63,1785.9L1360.63,1743.19C1374.27,1739.64 1387.35,1734.2 1399.49,1727.02L1429.74,1757.27L1483.18,1703.83L1452.95,1673.59C1460.09,1661.45 1465.5,1648.36 1469.02,1634.72L1511.81,1634.72L1511.81,1559.13L1469.1,1559.13C1465.55,1545.49 1460.11,1532.41 1452.93,1520.28L1483.18,1490.03L1429.74,1436.58L1399.5,1466.81C1387.36,1459.67 1374.27,1454.26 1360.63,1450.74L1360.63,1407.95L1285.04,1407.95ZM1322.84,1521.33C1364.3,1521.33 1398.42,1555.46 1398.42,1596.92C1398.42,1638.39 1364.3,1672.52 1322.84,1672.52C1281.37,1672.52 1247.24,1638.39 1247.24,1596.92C1247.24,1555.46 1281.37,1521.33 1322.84,1521.33Z" style="fill:rgb(141,165,180);fill-rule:nonzero;"/>
            </g>
            <g id="g28149">
                <path id="path28063" d="M2762.62,3145L2771.28,3140L2771.28,3151.3L2762.62,3156.3L2762.62,3145" style="fill:rgb(204,204,204);fill-rule:nonzero;"/>
                <path id="path28065" d="M2762.62,3156.3L2771.28,3151.3L2762.38,3150.44L2753.72,3155.44L2762.62,3156.3" style="fill:rgb(241,244,247);fill-rule:nonzero;"/>
                <path id="path28067" d="M2753.72,3155.44L2762.38,3150.44L2755.45,3138.43L2746.79,3143.43L2753.72,3155.44" style="fill:rgb(141,165,180);fill-rule:nonzero;"/>
                <path id="path28069" d="M2746.79,3143.43L2755.45,3138.43L2743.2,3145.5L2734.54,3150.5L2746.79,3143.43" style="fill-opacity:0.3;fill-rule:nonzero;"/>
                <path id="path28071" d="M2734.54,3150.5L2743.2,3145.5L2750.13,3157.5L2741.47,3162.5L2734.54,3150.5" style="fill:rgb(204,204,204);fill-rule:nonzero;"/>
                <path id="path28073" d="M2741.47,3162.5L2750.13,3157.5L2746.45,3165.66L2737.78,3170.66L2741.47,3162.5" style="fill:rgb(204,204,204);fill-rule:nonzero;"/>
                <path id="path28077" d="M2727.98,3165L2736.64,3160L2736.64,3180L2727.98,3185L2727.98,3165" style="fill:rgb(204,204,204);fill-rule:nonzero;"/>
                <path id="path28079" d="M2727.98,3185L2736.64,3180L2746.43,3185.65L2737.77,3190.65L2727.98,3185" style="fill:rgb(204,204,204);fill-rule:nonzero;"/>
                <path id="path28081" d="M2737.77,3190.65L2746.43,3185.65L2750.13,3198.07L2741.47,3203.07L2737.77,3190.65" style="fill:rgb(204,204,204);fill-rule:nonzero;"/>
                <path id="path28083" d="M2741.47,3203.07L2750.13,3198.07L2743.2,3202.07L2734.54,3207.07L2741.47,3203.07" style="fill-opacity:0.3;fill-rule:nonzero;"/>
                <path id="path28085" d="M2734.54,3207.07L2743.2,3202.07L2755.45,3223.28L2746.79,3228.28L2734.54,3207.07" style="fill:rgb(204,204,204);fill-rule:nonzero;"/>
                <path id="path28087" d="M2746.79,3228.28L2755.45,3223.28L2762.37,3219.28L2753.71,3224.28L2746.79,3228.28" style="fill-opacity:0.3;fill-rule:nonzero;"/>
                <path id="path28089" d="M2753.71,3224.28L2762.37,3219.28L2771.28,3228.68L2762.62,3233.68L2753.71,3224.28" style="fill:rgb(204,204,204);fill-rule:nonzero;"/>
                <path id="path28091" d="M2762.62,3233.68L2771.28,3228.68L2771.28,3240L2762.62,3245L2762.62,3233.68" style="fill:rgb(204,204,204);fill-rule:nonzero;"/>
                <path id="path28093" d="M2762.62,3245L2771.28,3240L2788.6,3250L2779.94,3255L2762.62,3245" style="fill:rgb(204,204,204);fill-rule:nonzero;"/>
                <path id="path28095" d="M2779.94,3255L2788.6,3250L2788.6,3238.7L2779.94,3243.7L2779.94,3255" style="fill:rgb(141,165,180);fill-rule:nonzero;"/>
                <path id="path28097" d="M2779.94,3243.7L2788.6,3238.7L2797.51,3239.56L2788.85,3244.56L2779.94,3243.7" style="fill:rgb(204,204,204);fill-rule:nonzero;"/>
                <path id="path28099" d="M2788.85,3244.56L2797.51,3239.56L2804.44,3251.57L2795.78,3256.57L2788.85,3244.56" style="fill:rgb(204,204,204);fill-rule:nonzero;"/>
                <path id="path28101" d="M2795.78,3256.57L2804.44,3251.57L2816.68,3244.5L2808.02,3249.5L2795.78,3256.57" style="fill-opacity:0.3;fill-rule:nonzero;"/>
                <path id="path28103" d="M2808.02,3249.5L2816.68,3244.5L2809.76,3232.5L2801.1,3237.5L2808.02,3249.5" style="fill:rgb(141,165,180);fill-rule:nonzero;"/>
                <path id="path28105" d="M2801.1,3237.5L2809.76,3232.5L2813.44,3224.34L2804.78,3229.34L2801.1,3237.5" style="fill:rgb(141,165,180);fill-rule:nonzero;"/>
                <path id="path28107" d="M2804.78,3229.34L2813.44,3224.34L2823.24,3230L2814.58,3235L2804.78,3229.34" style="fill:rgb(204,204,204);fill-rule:nonzero;"/>
                <path id="path28109" d="M2814.58,3235L2823.24,3230L2823.24,3210L2814.58,3215L2814.58,3235" style="fill:rgb(141,165,180);fill-rule:nonzero;"/>
                <path id="path28111" d="M2814.58,3215L2823.24,3210L2813.46,3204.35L2804.8,3209.35L2814.58,3215" style="fill:rgb(241,244,247);fill-rule:nonzero;"/>
                <path id="path28113" d="M2804.8,3209.35L2813.46,3204.35L2809.75,3191.93L2801.09,3196.93L2804.8,3209.35" style="fill:rgb(141,165,180);fill-rule:nonzero;"/>
                <path id="path28115" d="M2801.09,3196.93L2809.75,3191.93L2816.68,3187.93L2808.02,3192.93L2801.09,3196.93" style="fill-opacity:0.3;fill-rule:nonzero;"/>
                <path id="path28117" d="M2808.02,3192.93L2816.68,3187.93L2804.44,3166.72L2795.78,3171.72L2808.02,3192.93" style="fill:rgb(141,165,180);fill-rule:nonzero;"/>
                <path id="path28119" d="M2795.78,3171.72L2804.44,3166.72L2797.51,3170.72L2788.85,3175.72L2795.78,3171.72" style="fill-opacity:0.3;fill-rule:nonzero;"/>
                <path id="path28121" d="M2788.85,3175.72L2797.51,3170.72L2788.6,3161.32L2779.94,3166.32L2788.85,3175.72" style="fill:rgb(241,244,247);fill-rule:nonzero;"/>
                <path id="path28123" d="M2779.94,3166.32L2788.6,3161.32L2788.6,3150L2779.94,3155L2779.94,3166.32" style="fill:rgb(141,165,180);fill-rule:nonzero;"/>
                <path id="path28125" d="M2779.94,3155L2788.6,3150L2771.28,3140L2762.62,3145L2779.94,3155" style="fill:rgb(241,244,247);fill-rule:nonzero;"/>
                <path id="path28127" d="M2762.62,3145L2771.28,3140L2762.62,3145" style="fill-opacity:0.3;fill-rule:nonzero;"/>
                <path id="path28145" d="M2771.28,3180L2779.94,3175L2771.28,3180" style="fill-opacity:0.3;fill-rule:nonzero;"/>
                <path id="path28147" d="M2771.28,3180L2779.94,3175L2771.28,3180" style="fill-opacity:0.3;fill-rule:nonzero;"/>
                <path id="path28075" d="M2737.78,3170.66L2746.45,3165.66L2736.64,3160L2727.98,3165L2737.78,3170.66" style="fill:rgb(241,244,247);fill-rule:nonzero;"/>
            </g>
            <g id="path20286" transform="matrix(0.229136,0.132292,0,0.264583,2468.17,2602.48)">
                <path d="M1285.04,1407.95L1285.04,1450.66C1271.4,1454.21 1258.32,1459.65 1246.18,1466.83L1215.93,1436.58L1162.49,1490.03L1192.72,1520.26C1185.58,1532.41 1180.17,1545.49 1176.65,1559.13L1133.86,1559.13L1133.86,1634.72L1176.57,1634.72C1180.12,1648.36 1185.56,1661.44 1192.74,1673.58L1162.49,1703.83L1215.93,1757.27L1246.17,1727.04C1258.31,1734.18 1271.4,1739.59 1285.04,1743.11L1285.04,1785.9L1360.63,1785.9L1360.63,1743.19C1374.27,1739.64 1387.35,1734.2 1399.49,1727.02L1429.74,1757.27L1483.18,1703.83L1452.95,1673.59C1460.09,1661.45 1465.5,1648.36 1469.02,1634.72L1511.81,1634.72L1511.81,1559.13L1469.1,1559.13C1465.55,1545.49 1460.11,1532.41 1452.93,1520.28L1483.18,1490.03L1429.74,1436.58L1399.5,1466.81C1387.36,1459.67 1374.27,1454.26 1360.63,1450.74L1360.63,1407.95L1285.04,1407.95ZM1322.84,1521.33C1364.3,1521.33 1398.42,1555.46 1398.42,1596.92C1398.42,1638.39 1364.3,1672.52 1322.84,1672.52C1281.37,1672.52 1247.24,1638.39 1247.24,1596.92C1247.24,1555.46 1281.37,1521.33 1322.84,1521.33Z" style="fill:rgb(205,216,225);fill-rule:nonzero;"/>
            </g>
        </g>
    </g>
</svg>
